X: 1
T:Gan Ainm
R:Reel
S:Maire O'Keeffe, Kerry (fiddle)
D:Session tape - Milltown Malbay 1991
Z:Bernie Stocks
M:4/4
L:1/8
K:D
F2AF DFAG|F2AF EFDE|F2AF dFAF|BFAF E2DE|!
F2AF DFAG|F2AF EFDE|~d3A BAFD|E2FE D4:|!
|:f2df efdf|afdf edBd|f2df efdf|afdf e2de|!
f2af e2fe|dfed BAFA|~B3B {d}BAFD|E2FE D4:|!
